; generated by Slic3r 1.0.0RC3 on 2016-01-25 at 19:20:40

; layer_height = 0.4
; perimeters = 3
; top_solid_layers = 3
; bottom_solid_layers = 3
; fill_density = 0.4
; perimeter_speed = 30
; infill_speed = 60
; travel_speed = 130
; nozzle_diameter = 0.5
; filament_diameter = 3
; extrusion_multiplier = 1
; perimeters extrusion width = 0.50mm
; infill extrusion width = 0.53mm
; solid infill extrusion width = 0.53mm
; top infill extrusion width = 0.53mm
; first layer extrusion width = 1.00mm

G21 ; set units to millimeters
M107
M104 S205 ; set temperature
G28 ; home all axes
G1 Z5 F5000 ; lift nozzle
M109 S205 ; wait for temperature to be reached
G90 ; use absolute coordinates
G92 E0
M82 ; use absolute distances for extrusion
G1 F1800.000 E-1.00000
G92 E0
G1 Z0.500 F7800.000
G1 X64.500 Y50.360 F7800.000
G1 E1.00000 F1800.000
G1 X65.120 Y49.600 E1.06193 F540.000
G1 X65.590 Y49.090 E1.10573
G1 X66.100 Y48.620 E1.14952
G1 X66.860 Y48.000 E1.21146
G1 X67.400 Y47.600 E1.25389
G1 X67.970 Y47.260 E1.29580
G1 X68.830 Y46.800 E1.35739
G1 X69.430 Y46.520 E1.39920
G1 X70.050 Y46.290 E1.44095
G1 X70.990 Y46.000 E1.50307
G1 X71.680 Y45.830 E1.54794
G1 X72.390 Y45.730 E1.59322
G1 X73.370 Y45.640 E1.65536
G1 X74.000 Y45.610 E1.69519
G1 X126.000 Y45.610 E4.97876
G1 X126.640 Y45.640 E5.01922
G1 X127.610 Y45.730 E5.08073
G1 X128.310 Y45.830 E5.12538
G1 X129.000 Y46.000 E5.17025
G1 X129.940 Y46.290 E5.23237
G1 X130.560 Y46.520 E5.27413
G1 X131.160 Y46.800 E5.31594
G1 X132.020 Y47.260 E5.37752
G1 X132.590 Y47.600 E5.41943
G1 X133.130 Y48.000 E5.46187
G1 X133.890 Y48.620 E5.52380
G1 X134.400 Y49.090 E5.56760
G1 X134.870 Y49.600 E5.61139
G1 X135.490 Y50.360 E5.67332
G1 X135.890 Y50.900 E5.71576
G1 X136.230 Y51.470 E5.75767
G1 X136.690 Y52.330 E5.81925
G1 X136.970 Y52.930 E5.86106
G1 X137.200 Y53.550 E5.90282
G1 X137.490 Y54.490 E5.96494
G1 X137.650 Y55.150 E6.00782
G1 X137.760 Y55.820 E6.05070
G1 X137.860 Y56.800 E6.11290
G1 X137.890 Y57.500 E6.15714
G1 X137.890 Y142.500 E11.52451
G1 X137.860 Y143.210 E11.56939
G1 X137.760 Y144.180 E11.63096
G1 X137.650 Y144.850 E11.67384
G1 X137.490 Y145.500 E11.71611
G1 X137.200 Y146.440 E11.77822
G1 X136.970 Y147.060 E11.81998
G1 X136.690 Y147.660 E11.86179
G1 X136.230 Y148.520 E11.92338
G1 X135.890 Y149.090 E11.96529
G1 X135.490 Y149.630 E12.00772
G1 X134.870 Y150.390 E12.06965
G1 X134.400 Y150.900 E12.11345
G1 X133.890 Y151.370 E12.15724
G1 X133.130 Y151.990 E12.21918
G1 X132.590 Y152.390 E12.26161
G1 X132.020 Y152.730 E12.30352
G1 X131.160 Y153.190 E12.36511
G1 X130.560 Y153.470 E12.40692
G1 X129.940 Y153.700 E12.44867
G1 X129.000 Y153.990 E12.51079
G1 X128.350 Y154.150 E12.55306
G1 X127.680 Y154.260 E12.59594
G1 X126.710 Y154.360 E12.65751
G1 X126.000 Y154.390 E12.70238
G1 X74.000 Y154.390 E15.98595
G1 X73.300 Y154.360 E16.03020
G1 X72.320 Y154.260 E16.09240
G1 X71.650 Y154.150 E16.13527
G1 X70.990 Y153.990 E16.17816
G1 X70.050 Y153.700 E16.24027
G1 X69.430 Y153.470 E16.28203
G1 X68.830 Y153.190 E16.32384
G1 X67.970 Y152.730 E16.38543
G1 X67.400 Y152.390 E16.42734
G1 X66.860 Y151.990 E16.46977
G1 X66.100 Y151.370 E16.53170
G1 X65.590 Y150.900 E16.57550
G1 X65.120 Y150.390 E16.61929
G1 X64.500 Y149.630 E16.68123
G1 X64.100 Y149.090 E16.72366
G1 X63.760 Y148.520 E16.76557
G1 X63.300 Y147.660 E16.82716
G1 X63.020 Y147.060 E16.86897
G1 X62.790 Y146.440 E16.91072
G1 X62.500 Y145.500 E16.97284
G1 X62.330 Y144.810 E17.01771
G1 X62.230 Y144.100 E17.06299
G1 X62.140 Y143.120 E17.12513
G1 X62.110 Y142.490 E17.16496
G1 X62.110 Y57.500 E22.53170
G1 X62.140 Y56.870 E22.57153
G1 X62.230 Y55.890 E22.63367
G1 X62.330 Y55.180 E22.67895
G1 X62.500 Y54.490 E22.72382
G1 X62.790 Y53.550 E22.78594
G1 X63.020 Y52.930 E22.82769
G1 X63.300 Y52.330 E22.86950
G1 X63.760 Y51.470 E22.93109
G1 X64.100 Y50.900 E22.97300
G1 X64.420 Y50.468 E23.00698
G1 F1800.000 E22.00698
G92 E0
G1 X77.500 Y55.250 F7800.000
G1 E1.00000 F1800.000
G1 X88.500 Y55.250 E1.69460 F378.000
G1 X88.500 Y66.250 E2.38920
G1 X77.500 Y66.250 E3.08380
G1 X77.500 Y55.384 E3.76995
G1 X77.500 Y54.357 F7800.000
G1 X75.913 Y68.416 F7800.000
G1 X76.551 Y68.609 E3.81205 F540.000
G1 X77.139 Y68.924 E3.85412
G1 X77.654 Y69.346 E3.89620
G1 X78.076 Y69.861 E3.93827
G1 X78.391 Y70.449 E3.98035
G1 X78.584 Y71.087 E4.02244
G1 X78.649 Y71.750 E4.06452
G1 X78.584 Y72.413 E4.10659
G1 X78.391 Y73.051 E4.14869
G1 X78.076 Y73.639 E4.19077
G1 X77.654 Y74.154 E4.23284
G1 X77.139 Y74.576 E4.27492
G1 X76.551 Y74.891 E4.31699
G1 X75.913 Y75.084 E4.35909
G1 X75.250 Y75.149 E4.40117
G1 X74.587 Y75.084 E4.44324
G1 X73.949 Y74.891 E4.48534
G1 X73.361 Y74.576 E4.52741
G1 X72.846 Y74.154 E4.56949
G1 X72.424 Y73.639 E4.61156
G1 X72.109 Y73.051 E4.65364
G1 X71.916 Y72.413 E4.69573
G1 X71.851 Y71.750 E4.73781
G1 X71.916 Y71.087 E4.77989
G1 X72.109 Y70.449 E4.82198
G1 X72.424 Y69.861 E4.86406
G1 X72.846 Y69.346 E4.90613
G1 X73.361 Y68.924 E4.94821
G1 X73.949 Y68.609 E4.99028
G1 X74.587 Y68.416 E5.03238
G1 X75.250 Y68.351 E5.07445
G1 X75.780 Y68.403 E5.10807
G1 X75.665 Y69.288 F7800.000
G1 X75.738 Y69.296 E5.11273 F540.000
G1 X76.208 Y69.438 E5.14372
G1 X76.640 Y69.669 E5.17469
G1 X77.019 Y69.981 E5.20566
G1 X77.331 Y70.360 E5.23664
G1 X77.562 Y70.792 E5.26761
G1 X77.704 Y71.262 E5.29859
G1 X77.752 Y71.750 E5.32957
G1 X77.704 Y72.238 E5.36055
G1 X77.562 Y72.708 E5.39153
G1 X77.331 Y73.140 E5.42250
G1 X77.019 Y73.519 E5.45348
G1 X76.640 Y73.831 E5.48445
G1 X76.208 Y74.062 E5.51543
G1 X75.738 Y74.204 E5.54641
G1 X75.250 Y74.252 E5.57738
G1 X74.762 Y74.204 E5.60836
G1 X74.292 Y74.062 E5.63934
G1 X73.860 Y73.831 E5.67032
G1 X73.481 Y73.519 E5.70129
G1 X73.169 Y73.140 E5.73227
G1 X72.938 Y72.708 E5.76324
G1 X72.796 Y72.238 E5.79422
G1 X72.748 Y71.750 E5.82520
G1 X72.796 Y71.262 E5.85617
G1 X72.938 Y70.792 E5.88716
G1 X73.169 Y70.360 E5.91813
G1 X73.481 Y69.981 E5.94911
G1 X73.860 Y69.669 E5.98008
G1 X74.292 Y69.438 E6.01105
G1 X74.762 Y69.296 E6.04204
G1 X75.250 Y69.248 E6.07301
G1 X75.532 Y69.275 E6.09087
G1 X75.708 Y69.228 F7800.000
G1 X121.351 Y71.750 F7800.000
G1 X121.416 Y71.087 E6.13295 F540.000
G1 X121.609 Y70.449 E6.17505
G1 X121.924 Y69.861 E6.21712
G1 X122.346 Y69.346 E6.25920
G1 X122.861 Y68.924 E6.30127
G1 X123.449 Y68.609 E6.34335
G1 X124.087 Y68.416 E6.38545
G1 X126.173 Y68.211 E6.51782
G1 X126.173 Y68.675 E6.54712
G1 X126.639 Y68.924 E6.58046
G1 X127.154 Y69.346 E6.62253
G1 X127.576 Y69.861 E6.66460
G1 X127.891 Y70.449 E6.70668
G1 X128.084 Y71.087 E6.74878
G1 X128.149 Y71.750 E6.79086
G1 X128.084 Y72.413 E6.83293
G1 X127.891 Y73.051 E6.87503
G1 X127.576 Y73.639 E6.91711
G1 X127.154 Y74.154 E6.95918
G1 X126.639 Y74.576 E7.00125
G1 X126.173 Y74.825 E7.03459
G1 X126.173 Y75.289 E7.06389
G1 X124.087 Y75.084 E7.19627
G1 X123.449 Y74.891 E7.23836
G1 X122.861 Y74.576 E7.28044
G1 X122.346 Y74.154 E7.32251
G1 X121.924 Y73.639 E7.36459
G1 X121.609 Y73.051 E7.40666
G1 X121.416 Y72.413 E7.44876
G1 X121.364 Y71.883 E7.48238
G1 X122.248 Y71.750 F7800.000
G1 X122.296 Y71.262 E7.51336 F540.000
G1 X122.438 Y70.792 E7.54434
G1 X122.669 Y70.360 E7.57531
G1 X122.981 Y69.981 E7.60629
G1 X123.360 Y69.669 E7.63726
G1 X123.792 Y69.438 E7.66824
G1 X124.262 Y69.296 E7.69922
G1 X125.280 Y69.195 E7.76385
G1 X125.280 Y69.308 E7.77099
G1 X125.708 Y69.438 E7.79918
G1 X126.140 Y69.669 E7.83016
G1 X126.519 Y69.981 E7.86113
G1 X126.831 Y70.360 E7.89211
G1 X127.062 Y70.792 E7.92308
G1 X127.204 Y71.262 E7.95406
G1 X127.252 Y71.750 E7.98504
G1 X127.204 Y72.238 E8.01602
G1 X127.062 Y72.708 E8.04700
G1 X126.831 Y73.140 E8.07797
G1 X126.519 Y73.519 E8.10895
G1 X126.140 Y73.831 E8.13992
G1 X125.708 Y74.062 E8.17089
G1 X125.280 Y74.192 E8.19909
G1 X125.280 Y74.305 E8.20623
G1 X124.262 Y74.204 E8.27086
G1 X123.792 Y74.062 E8.30184
G1 X123.360 Y73.831 E8.33282
G1 X122.981 Y73.519 E8.36379
G1 X122.669 Y73.140 E8.39477
G1 X122.438 Y72.708 E8.42574
G1 X122.296 Y72.238 E8.45672
G1 X122.261 Y71.883 E8.47924
G1 X121.831 Y71.491 F7800.000
G1 X81.137 Y134.178 F7800.000
G1 X81.788 Y134.712 E8.53241 F540.000
G1 X82.322 Y135.363 E8.58559
G1 X82.719 Y136.105 E8.63876
G1 X82.964 Y136.912 E8.69197
G1 X83.046 Y137.750 E8.74515
G1 X82.964 Y138.588 E8.79833
G1 X82.719 Y139.395 E8.85155
G1 X82.322 Y140.137 E8.90472
G1 X81.788 Y140.788 E8.95789
G1 X81.137 Y141.322 E9.01106
G1 X80.394 Y141.719 E9.06425
G1 X79.588 Y141.964 E9.11745
G1 X78.750 Y142.046 E9.17063
G1 X77.912 Y141.964 E9.22381
G1 X77.106 Y141.719 E9.27702
G1 X76.363 Y141.322 E9.33019
G1 X75.712 Y140.788 E9.38337
G1 X75.178 Y140.137 E9.43654
G1 X74.781 Y139.394 E9.48972
G1 X74.536 Y138.588 E9.54293
G1 X74.454 Y137.750 E9.59611
G1 X74.536 Y136.912 E9.64929
G1 X74.781 Y136.106 E9.70249
G1 X75.178 Y135.363 E9.75567
G1 X75.712 Y134.712 E9.80884
G1 X76.363 Y134.178 E9.86202
G1 X77.106 Y133.781 E9.91519
G1 X77.912 Y133.536 E9.96841
G1 X78.750 Y133.454 E10.02158
G1 X79.588 Y133.536 E10.07476
G1 X80.394 Y133.781 E10.12797
G1 X81.019 Y134.115 E10.17269
G1 X80.639 Y134.924 F7800.000
G1 X81.154 Y135.346 E10.21477 F540.000
G1 X81.576 Y135.861 E10.25684
G1 X81.891 Y136.449 E10.29891
G1 X82.084 Y137.087 E10.34101
G1 X82.149 Y137.750 E10.38309
G1 X82.084 Y138.413 E10.42517
G1 X81.891 Y139.051 E10.46726
G1 X81.576 Y139.639 E10.50934
G1 X81.154 Y140.154 E10.55141
G1 X80.639 Y140.576 E10.59348
G1 X80.051 Y140.891 E10.63556
G1 X79.413 Y141.084 E10.67766
G1 X78.750 Y141.149 E10.71974
G1 X78.087 Y141.084 E10.76181
G1 X77.449 Y140.891 E10.80391
G1 X76.861 Y140.576 E10.84598
G1 X76.346 Y140.154 E10.88806
G1 X75.924 Y139.639 E10.93013
G1 X75.609 Y139.051 E10.97221
G1 X75.416 Y138.413 E11.01430
G1 X75.351 Y137.750 E11.05638
G1 X75.416 Y137.087 E11.09846
G1 X75.609 Y136.449 E11.14055
G1 X75.924 Y135.861 E11.18263
G1 X76.346 Y135.346 E11.22470
G1 X76.861 Y134.924 E11.26678
G1 X77.449 Y134.609 E11.30885
G1 X78.087 Y134.416 E11.35095
G1 X78.750 Y134.351 E11.39302
G1 X79.413 Y134.416 E11.43510
G1 X80.051 Y134.609 E11.47720
G1 X80.521 Y134.860 E11.51082
G1 X80.075 Y135.635 F7800.000
G1 X80.519 Y135.981 E11.54637 F540.000
G1 X80.831 Y136.360 E11.57734
G1 X81.062 Y136.792 E11.60831
G1 X81.204 Y137.262 E11.63930
G1 X81.252 Y137.750 E11.67027
G1 X81.204 Y138.238 E11.70125
G1 X81.062 Y138.708 E11.73223
G1 X80.831 Y139.140 E11.76321
G1 X80.519 Y139.519 E11.79418
G1 X80.140 Y139.831 E11.82515
G1 X79.708 Y140.062 E11.85613
G1 X79.238 Y140.204 E11.88711
G1 X78.750 Y140.252 E11.91809
G1 X78.262 Y140.204 E11.94906
G1 X77.792 Y140.062 E11.98005
G1 X77.360 Y139.831 E12.01102
G1 X76.981 Y139.519 E12.04199
G1 X76.669 Y139.140 E12.07297
G1 X76.438 Y138.708 E12.10394
G1 X76.296 Y138.238 E12.13493
G1 X76.248 Y137.750 E12.16590
G1 X76.296 Y137.262 E12.19688
G1 X76.438 Y136.792 E12.22786
G1 X76.669 Y136.360 E12.25883
G1 X76.981 Y135.981 E12.28981
G1 X77.360 Y135.669 E12.32078
G1 X77.792 Y135.438 E12.35176
G1 X78.262 Y135.296 E12.38274
G1 X78.750 Y135.248 E12.41372
G1 X79.238 Y135.296 E12.44469
G1 X79.708 Y135.438 E12.47567
G1 X79.957 Y135.571 E12.49354
G1 X80.584 Y135.394 F7800.000
G1 X116.954 Y137.750 F7800.000
G1 X117.036 Y136.912 E12.54672 F540.000
G1 X117.281 Y136.106 E12.59993
G1 X117.678 Y135.363 E12.65311
G1 X118.212 Y134.712 E12.70628
G1 X118.863 Y134.178 E12.75945
G1 X119.606 Y133.781 E12.81263
G1 X120.412 Y133.536 E12.86585
G1 X123.566 Y133.226 E13.06596
G1 X123.566 Y134.119 E13.12239
G1 X124.288 Y134.712 E13.18138
G1 X124.822 Y135.363 E13.23455
G1 X125.219 Y136.106 E13.28773
G1 X125.464 Y136.912 E13.34094
G1 X125.546 Y137.750 E13.39412
G1 X125.464 Y138.588 E13.44730
G1 X125.219 Y139.394 E13.50051
G1 X124.822 Y140.137 E13.55369
G1 X124.288 Y140.788 E13.60686
G1 X123.566 Y141.381 E13.66585
G1 X123.566 Y142.274 E13.72228
G1 X120.412 Y141.964 E13.92240
G1 X119.606 Y141.719 E13.97561
G1 X118.863 Y141.322 E14.02879
G1 X118.212 Y140.788 E14.08196
G1 X117.678 Y140.137 E14.13513
G1 X117.281 Y139.394 E14.18831
G1 X117.036 Y138.588 E14.24152
G1 X116.967 Y137.883 E14.28624
G1 X117.851 Y137.750 F7800.000
G1 X117.916 Y137.087 E14.32832 F540.000
G1 X118.109 Y136.449 E14.37042
G1 X118.424 Y135.861 E14.41249
G1 X118.846 Y135.346 E14.45457
G1 X119.361 Y134.924 E14.49664
G1 X119.949 Y134.609 E14.53872
G1 X120.587 Y134.416 E14.58082
G1 X122.673 Y134.211 E14.71318
G1 X122.673 Y134.675 E14.74249
G1 X123.139 Y134.924 E14.77583
G1 X123.654 Y135.346 E14.81790
G1 X124.076 Y135.861 E14.85997
G1 X124.391 Y136.449 E14.90205
G1 X124.584 Y137.087 E14.94415
G1 X124.649 Y137.750 E14.98622
G1 X124.584 Y138.413 E15.02830
G1 X124.391 Y139.051 E15.07040
G1 X124.076 Y139.639 E15.11247
G1 X123.654 Y140.154 E15.15455
G1 X123.139 Y140.576 E15.19662
G1 X122.673 Y140.825 E15.22996
G1 X122.673 Y141.289 E15.25926
G1 X120.587 Y141.084 E15.39164
G1 X119.949 Y140.891 E15.43373
G1 X119.361 Y140.576 E15.47581
G1 X118.846 Y140.154 E15.51788
G1 X118.424 Y139.639 E15.55996
G1 X118.109 Y139.051 E15.60203
G1 X117.916 Y138.413 E15.64413
G1 X117.864 Y137.883 E15.67775
G1 X118.748 Y137.750 F7800.000
G1 X118.796 Y137.262 E15.70872 F540.000
G1 X118.938 Y136.792 E15.73971
G1 X119.169 Y136.360 E15.77068
G1 X119.481 Y135.981 E15.80166
G1 X119.860 Y135.669 E15.83263
G1 X120.292 Y135.438 E15.86360
G1 X120.762 Y135.296 E15.89459
G1 X121.780 Y135.195 E15.95922
G1 X121.780 Y135.308 E15.96636
G1 X122.208 Y135.438 E15.99455
G1 X122.640 Y135.669 E16.02553
G1 X123.019 Y135.981 E16.05650
G1 X123.331 Y136.360 E16.08748
G1 X123.562 Y136.792 E16.11845
G1 X123.704 Y137.262 E16.14943
G1 X123.752 Y137.750 E16.18041
G1 X123.704 Y138.238 E16.21138
G1 X123.562 Y138.708 E16.24237
G1 X123.331 Y139.140 E16.27334
G1 X123.019 Y139.519 E16.30432
G1 X122.640 Y139.831 E16.33529
G1 X122.208 Y140.062 E16.36626
G1 X121.780 Y140.192 E16.39446
G1 X121.780 Y140.305 E16.40160
G1 X120.762 Y140.204 E16.46623
G1 X120.292 Y140.062 E16.49721
G1 X119.860 Y139.831 E16.52819
G1 X119.481 Y139.519 E16.55916
G1 X119.169 Y139.140 E16.59013
G1 X118.938 Y138.708 E16.62111
G1 X118.796 Y138.238 E16.65209
G1 X118.761 Y137.883 E16.67461
G1 X118.331 Y137.491 F7800.000
G1 F1800.000 E15.67461
G92 E0
G1 X125.888 Y145.215 F7800.000
G1 E1.00000 F1800.000
G1 X74.112 Y145.215 E4.26939 F540.000
G1 X73.473 Y145.152 E4.30998
G1 X72.965 Y144.998 E4.34344
G1 X72.498 Y144.748 E4.37691
G1 X72.088 Y144.412 E4.41038
G1 X71.752 Y144.002 E4.44384
G1 X71.502 Y143.535 E4.47731
G1 X71.348 Y143.027 E4.51077
G1 X71.285 Y142.388 E4.55137
G1 X71.285 Y73.659 E8.89129
G1 X72.212 Y74.788 E8.98352
G1 X72.863 Y75.322 E9.03670
G1 X73.606 Y75.719 E9.08987
G1 X74.412 Y75.964 E9.14308
G1 X75.250 Y76.046 E9.19626
G1 X76.088 Y75.964 E9.24943
G1 X76.894 Y75.719 E9.30264
G1 X77.637 Y75.322 E9.35582
G1 X78.288 Y74.788 E9.40900
G1 X78.822 Y74.137 E9.46217
G1 X79.219 Y73.395 E9.51535
G1 X79.464 Y72.588 E9.56856
G1 X79.546 Y71.750 E9.62174
G1 X79.464 Y70.912 E9.67491
G1 X79.219 Y70.106 E9.72812
G1 X78.822 Y69.363 E9.78130
G1 X77.733 Y68.035 E9.88974
G1 X90.285 Y68.035 E10.68237
G1 X90.285 Y54.785 E11.51905
G1 X125.888 Y54.785 E13.76717
G1 X126.527 Y54.848 E13.80777
G1 X127.035 Y55.002 E13.84123
G1 X127.502 Y55.252 E13.87470
G1 X127.912 Y55.588 E13.90816
G1 X128.248 Y55.998 E13.94163
G1 X128.498 Y56.465 E13.97510
G1 X128.652 Y56.973 E14.00856
G1 X128.715 Y57.612 E14.04916
G1 X128.715 Y69.841 E14.82135
G1 X127.788 Y68.712 E14.91359
G1 X127.066 Y68.119 E14.97258
G1 X127.066 Y67.226 E15.02901
G1 X123.912 Y67.536 E15.22912
G1 X123.106 Y67.781 E15.28234
G1 X122.363 Y68.178 E15.33552
G1 X121.712 Y68.712 E15.38869
G1 X121.178 Y69.363 E15.44186
G1 X120.781 Y70.106 E15.49504
G1 X120.536 Y70.912 E15.54825
G1 X120.454 Y71.750 E15.60143
G1 X120.536 Y72.588 E15.65461
G1 X120.781 Y73.394 E15.70782
G1 X121.178 Y74.137 E15.76099
G1 X121.712 Y74.788 E15.81417
