; generated by Slic3r 1.1.7 on 2016-10-26 at 06:01:57

; perimeters extrusion width = 0.50mm
; infill extrusion width = 1.02mm
; solid infill extrusion width = 0.85mm
; top infill extrusion width = 0.85mm

G21 ; set units to millimeters
M107
M104 S200 ; set temperature
G28 ; home all axes
G1 Z5 F5000 ; lift nozzle

M109 S200 ; wait for temperature to be reached
G90 ; use absolute coordinates
G92 E0
M82 ; use absolute distances for extrusion
G1 F1800.000 E-1.00000
G92 E0
G1 Z0.350 F7800.000
G1 X63.740 Y35.235 F7800.000
G1 E1.00000 F1800.000
G1 X64.884 Y33.241 E1.07480 F1080.000
G1 X66.637 Y31.755 E1.14960
G1 X68.792 Y30.953 E1.22440
G1 X70.000 Y30.843 E1.26386
G1 X124.139 Y30.844 E3.02527
G1 X125.250 Y30.905 E3.06149 F1080.000
G1 X126.436 Y31.080 E3.10049
G1 X127.609 Y31.369 E3.13978
G1 X128.776 Y31.779 E3.18003
G1 X129.920 Y32.313 E3.22111
G1 X131.019 Y32.968 E3.26273
G1 X132.058 Y33.740 E3.30484
G1 X132.853 Y34.456 E3.33965
G1 X133.198 Y34.811 E3.35576
G1 X133.793 Y35.482 E3.38494
G1 X134.541 Y36.495 E3.42590
G1 X135.177 Y37.564 E3.46637
G1 X135.698 Y38.672 E3.50621
G1 X136.103 Y39.803 E3.54531
G1 X136.393 Y40.941 E3.58350
G1 X136.573 Y42.069 E3.62067
G1 X136.626 Y42.664 E3.64012
G1 X136.657 Y43.500 E3.66733
G1 X136.651 Y156.781 E7.35296
G1 X136.578 Y157.887 E7.38901
G1 X136.402 Y159.017 E7.42621
G1 X136.116 Y160.156 E7.46443
G1 X135.714 Y161.291 E7.50359
G1 X135.195 Y162.403 E7.54352
G1 X134.560 Y163.476 E7.58409
G1 X134.387 Y163.725 E7.59398
G1 X133.815 Y164.492 E7.62509
G1 X132.892 Y165.507 E7.66972
G1 X132.082 Y166.240 E7.70528
G1 X131.045 Y167.014 E7.74735
G1 X129.947 Y167.672 E7.78902
G1 X128.805 Y168.209 E7.83007
G1 X127.639 Y168.622 E7.87031
G1 X126.468 Y168.913 E7.90958
G1 X125.278 Y169.092 E7.94872
G1 X124.840 Y169.126 E7.96301
G1 X124.000 Y169.157 E7.99037
G1 X70.000 Y169.157 E9.74727
G1 X67.735 Y168.760 E9.82207
G1 X65.741 Y167.616 E9.89687
G1 X64.255 Y165.863 E9.97167
G1 X63.453 Y163.708 E10.04647
G1 X63.343 Y162.500 E10.08593
G1 X63.343 Y37.500 E14.15283
G1 X63.727 Y35.309 E14.22519
G1 F1800.000 E13.22519
G92 E0
G1 X120.094 Y160.836 F7800.000
G1 E1.00000 F1800.000
G1 X120.094 Y39.164 E4.95861 F540.000
G1 X123.966 Y39.164 E5.08460
G1 X124.387 Y39.183 E5.09830
G1 X124.788 Y39.238 E5.11147
G1 X125.192 Y39.333 E5.12497
G1 X125.595 Y39.470 E5.13881
G1 X125.995 Y39.652 E5.15313
G1 X126.367 Y39.869 E5.16713
G1 X126.736 Y40.138 E5.18198
G1 X127.062 Y40.433 E5.19629
G1 X127.365 Y40.769 E5.21100
G1 X127.628 Y41.129 E5.22550
G1 X127.850 Y41.510 E5.23986
G1 X128.030 Y41.905 E5.25398
G1 X128.167 Y42.308 E5.26782
G1 X128.262 Y42.711 E5.28132
G1 X128.317 Y43.111 E5.29443
G1 X128.336 Y43.535 E5.30825
G1 X128.336 Y156.465 E8.98244
G1 X128.317 Y156.889 E8.99627
G1 X128.262 Y157.289 E9.00938
G1 X128.167 Y157.692 E9.02288
G1 X128.030 Y158.095 E9.03671
G1 X127.850 Y158.490 E9.05084
G1 X127.628 Y158.871 E9.06519
G1 X127.365 Y159.231 E9.07970
G1 X127.062 Y159.567 E9.09441
G1 X126.736 Y159.862 E9.10872
G1 X126.367 Y160.131 E9.12356
G1 X125.995 Y160.348 E9.13757
G1 X125.595 Y160.530 E9.15188
G1 X125.192 Y160.667 E9.16573
G1 X124.788 Y160.762 E9.17923
G1 X124.387 Y160.817 E9.19240
G1 X123.966 Y160.836 E9.20610
G1 X120.169 Y160.836 E9.32964
G1 X119.437 Y161.493 F7800.000
G1 X119.437 Y38.507 E13.33101 F540.000
G1 X123.986 Y38.507 E13.47900
G1 X124.447 Y38.528 E13.49402
G1 X124.908 Y38.591 E13.50917
G1 X125.373 Y38.701 E13.52472
G1 X125.837 Y38.859 E13.54067
G1 X126.298 Y39.068 E13.55712
G1 X126.727 Y39.319 E13.57330
G1 X127.150 Y39.628 E13.59035
G1 X127.528 Y39.968 E13.60687
G1 X127.876 Y40.354 E13.62379
G1 X128.179 Y40.769 E13.64049
G1 X128.434 Y41.207 E13.65702
G1 X128.642 Y41.663 E13.67329
G1 X128.799 Y42.126 E13.68923
G1 X128.909 Y42.591 E13.70477
G1 X128.972 Y43.051 E13.71987
G1 X128.993 Y43.521 E13.73519
G1 X128.993 Y156.479 E17.41028
G1 X128.972 Y156.949 E17.42560
G1 X128.909 Y157.409 E17.44069
G1 X128.799 Y157.874 E17.45624
G1 X128.642 Y158.338 E17.47217
G1 X128.434 Y158.793 E17.48844
G1 X128.179 Y159.231 E17.50497
G1 X127.876 Y159.646 E17.52167
G1 X127.528 Y160.032 E17.53860
G1 X127.150 Y160.372 E17.55512
G1 X126.727 Y160.681 E17.57216
G1 X126.298 Y160.932 E17.58834
G1 X125.837 Y161.141 E17.60480
G1 X125.373 Y161.299 E17.62074
G1 X124.908 Y161.409 E17.63630
G1 X124.447 Y161.472 E17.65145
G1 X123.986 Y161.493 E17.66646
G1 X119.512 Y161.493 E17.81201
G1 X118.780 Y162.150 F7800.000
G1 X118.780 Y37.850 E21.85614 F378.000
G1 X123.996 Y37.850 E22.02586
G1 X124.513 Y37.873 E22.04268
G1 X125.035 Y37.946 E22.05982
G1 X125.561 Y38.070 E22.07741
G1 X126.085 Y38.249 E22.09544
G1 X126.600 Y38.484 E22.11385
G1 X127.101 Y38.777 E22.13274
G1 X127.565 Y39.117 E22.15145
G1 X127.976 Y39.487 E22.16944
G1 X128.391 Y39.944 E22.18952
G1 X128.733 Y40.414 E22.20843
G1 X129.022 Y40.911 E22.22713
G1 X129.255 Y41.426 E22.24553
G1 X129.433 Y41.950 E22.26353
G1 X129.556 Y42.475 E22.28108
G1 X129.627 Y42.994 E22.29812
G1 X129.650 Y43.507 E22.31484
G1 X129.650 Y156.493 E25.99083
G1 X129.627 Y157.006 E26.00756
G1 X129.556 Y157.525 E26.02459
G1 X129.433 Y158.050 E26.04214
G1 X129.255 Y158.574 E26.06014
G1 X129.022 Y159.089 E26.07854
G1 X128.723 Y159.600 E26.09781
G1 X128.390 Y160.056 E26.11615
G1 X127.976 Y160.513 E26.13623
G1 X127.565 Y160.883 E26.15422
G1 X127.101 Y161.223 E26.17293
G1 X126.600 Y161.516 E26.19182
G1 X126.085 Y161.751 E26.21023
G1 X125.561 Y161.930 E26.22827
G1 X125.035 Y162.054 E26.24586
G1 X124.513 Y162.127 E26.26299
G1 X123.996 Y162.150 E26.27981
G1 X118.855 Y162.150 E26.44709
G1 X119.030 Y161.717 F7800.000
G1 X120.550 Y160.339 F7800.000
G1 X120.590 Y160.379 E26.44893 F1080.000
G1 X121.522 Y160.379 E26.47924
G1 X120.550 Y159.408 E26.52393
G1 X120.550 Y158.477 E26.55424
G1 X122.453 Y160.379 E26.64179
G1 X123.385 Y160.379 E26.67210
G1 X120.550 Y157.545 E26.80251
G1 X120.550 Y156.614 E26.83281
G1 X124.301 Y160.364 E27.00537
G1 X125.088 Y160.220 E27.03142
G1 X120.550 Y155.682 E27.24021
G1 X120.550 Y154.751 E27.27051
G1 X125.755 Y159.956 E27.50999
G1 X126.326 Y159.595 E27.53196
G1 X120.550 Y153.819 E27.79772
G1 X120.550 Y152.888 E27.82803
G1 X126.809 Y159.146 E28.11598
G1 X127.233 Y158.639 E28.13750
G1 X120.550 Y151.957 E28.44495
G1 X120.550 Y151.025 E28.47526
G1 X127.557 Y158.032 E28.79766
G1 X127.784 Y157.327 E28.82174
G1 X120.550 Y150.094 E29.15457
G1 X120.550 Y149.162 E29.18488
G1 X127.878 Y156.490 E29.52202
G1 X127.879 Y155.560 E29.55228
G1 X120.550 Y148.231 E29.88950
G1 X120.550 Y147.299 E29.91980
G1 X127.879 Y154.628 E30.25702
G1 X127.879 Y153.697 E30.28733
G1 X120.550 Y146.368 E30.62455
G1 X120.550 Y145.436 E30.65485
G1 X127.879 Y152.766 E30.99207
G1 X127.879 Y151.834 E31.02238
G1 X120.550 Y144.505 E31.35960
G1 X120.550 Y143.574 E31.38990
G1 X127.879 Y150.903 E31.72713
G1 X127.879 Y149.971 E31.75743
G1 X120.550 Y142.642 E32.09465
G1 X120.550 Y141.711 E32.12496
G1 X127.879 Y149.040 E32.46218
G1 X127.879 Y148.108 E32.49248
G1 X120.550 Y140.779 E32.82970
G1 X120.550 Y139.848 E32.86001
G1 X127.879 Y147.177 E33.19723
G1 X127.879 Y146.245 E33.22753
G1 X120.550 Y138.916 E33.56475
G1 X120.550 Y137.985 E33.59506
G1 X127.879 Y145.314 E33.93228
G1 X127.879 Y144.383 E33.96258
G1 X120.550 Y137.054 E34.29980
G1 X120.550 Y136.122 E34.33011
G1 X127.879 Y143.451 E34.66733
G1 X127.879 Y142.520 E34.69763
G1 X120.550 Y135.191 E35.03485
G1 X120.550 Y134.259 E35.06516
G1 X127.879 Y141.588 E35.40238
G1 X127.879 Y140.657 E35.43268
G1 X120.550 Y133.328 E35.76990
G1 X120.550 Y132.396 E35.80021
G1 X127.879 Y139.725 E36.13743
G1 X127.879 Y138.794 E36.16773
G1 X120.550 Y131.465 E36.50495
G1 X120.550 Y130.534 E36.53526
G1 X127.879 Y137.863 E36.87248
G1 X127.879 Y136.931 E36.90278
G1 X120.550 Y129.602 E37.24001
G1 X120.550 Y128.671 E37.27031
G1 X127.879 Y136.000 E37.60753
G1 X127.879 Y135.068 E37.63784
G1 X120.550 Y127.739 E37.97506
G1 X120.550 Y126.808 E38.00536
G1 X127.879 Y134.137 E38.34258
G1 X127.879 Y133.205 E38.37289
G1 X120.550 Y125.876 E38.71011
G1 X120.550 Y124.945 E38.74041
G1 X127.879 Y132.274 E39.07763
G1 X127.879 Y131.342 E39.10794
G1 X120.550 Y124.013 E39.44516
G1 X120.550 Y123.082 E39.47546
G1 X127.879 Y130.411 E39.81268
G1 X127.879 Y129.480 E39.84299
G1 X120.550 Y122.151 E40.18021
G1 X120.550 Y121.219 E40.21051
G1 X127.879 Y128.548 E40.54773
G1 X127.879 Y127.617 E40.57804
G1 X120.550 Y120.288 E40.91526
G1 X120.550 Y119.356 E40.94556
G1 X127.879 Y126.685 E41.28278
G1 X127.879 Y125.754 E41.31309
G1 X120.550 Y118.425 E41.65031
G1 X120.550 Y117.493 E41.68061
G1 X127.879 Y124.822 E42.01783
G1 X127.879 Y123.891 E42.04814
G1 X120.550 Y116.562 E42.38536
G1 X120.550 Y115.631 E42.41566
G1 X127.879 Y122.960 E42.75289
G1 X127.879 Y122.028 E42.78319
G1 X120.550 Y114.699 E43.12041
G1 X120.550 Y113.768 E43.15071
G1 X127.879 Y121.097 E43.48794
G1 X127.879 Y120.165 E43.51824
G1 X120.550 Y112.836 E43.85546
G1 X120.550 Y111.905 E43.88577
G1 X127.879 Y119.234 E44.22299
G1 X127.879 Y118.302 E44.25329
G1 X120.550 Y110.973 E44.59051
G1 X120.550 Y110.042 E44.62082
G1 X127.879 Y117.371 E44.95804
G1 X127.879 Y116.439 E44.98834
G1 X120.550 Y109.110 E45.32556
G1 X120.550 Y108.179 E45.35587
G1 X127.879 Y115.508 E45.69309
G1 X127.879 Y114.577 E45.72339
G1 X120.550 Y107.248 E46.06061
G1 X120.550 Y106.316 E46.09092
G1 X127.879 Y113.645 E46.42814
G1 X127.879 Y112.714 E46.45844
G1 X120.550 Y105.385 E46.79566
G1 X120.550 Y104.453 E46.82597
G1 X127.879 Y111.782 E47.16319
G1 X127.879 Y110.851 E47.19349
G1 X120.550 Y103.522 E47.53071
G1 X120.550 Y102.590 E47.56102
G1 X127.879 Y109.919 E47.89824
G1 X127.879 Y108.988 E47.92854
G1 X120.550 Y101.659 E48.26576
G1 X120.550 Y100.728 E48.29607
G1 X127.879 Y108.057 E48.63329
G1 X127.879 Y107.125 E48.66359
G1 X120.550 Y99.796 E49.00082
G1 X120.550 Y98.865 E49.03112
G1 X127.879 Y106.194 E49.36834
G1 X127.879 Y105.262 E49.39865
G1 X120.550 Y97.933 E49.73587
G1 X120.550 Y97.002 E49.76617
G1 X127.879 Y104.331 E50.10339
G1 X127.879 Y103.399 E50.13370
G1 X120.550 Y96.070 E50.47092
G1 X120.550 Y95.139 E50.50122
G1 X127.879 Y102.468 E50.83844
G1 X127.879 Y101.536 E50.86875
G1 X120.550 Y94.207 E51.20597
G1 X120.550 Y93.276 E51.23627
G1 X127.879 Y100.605 E51.57349
G1 X127.879 Y99.674 E51.60380
G1 X120.550 Y92.345 E51.94102
G1 X120.550 Y91.413 E51.97132
G1 X127.879 Y98.742 E52.30854
G1 X127.879 Y97.811 E52.33885
G1 X120.550 Y90.482 E52.67607
G1 X120.550 Y89.550 E52.70637
G1 X127.879 Y96.879 E53.04359
G1 X127.879 Y95.948 E53.07390
G1 X120.550 Y88.619 E53.41112
G1 X120.550 Y87.687 E53.44142
G1 X127.879 Y95.016 E53.77864
G1 X127.879 Y94.085 E53.80895
G1 X120.550 Y86.756 E54.14617
G1 X120.550 Y85.825 E54.17647
G1 X127.879 Y93.154 E54.51370
G1 X127.879 Y92.222 E54.54400
G1 X120.550 Y84.893 E54.88122
G1 X120.550 Y83.962 E54.91153
G1 X127.879 Y91.291 E55.24875
G1 X127.879 Y90.359 E55.27905
G1 X120.550 Y83.030 E55.61627
G1 X120.550 Y82.099 E55.64658
G1 X127.879 Y89.428 E55.98380
G1 X127.879 Y88.496 E56.01410
G1 X120.550 Y81.167 E56.35132
G1 X120.550 Y80.236 E56.38163
G1 X127.879 Y87.565 E56.71885
G1 X127.879 Y86.634 E56.74915
G1 X120.550 Y79.304 E57.08637
G1 X120.550 Y78.373 E57.11668
G1 X127.879 Y85.702 E57.45390
G1 X127.879 Y84.771 E57.48420
G1 X120.550 Y77.442 E57.82142
G1 X120.550 Y76.510 E57.85173
G1 X127.879 Y83.839 E58.18895
G1 X127.879 Y82.908 E58.21925
G1 X120.550 Y75.579 E58.55647
G1 X120.550 Y74.647 E58.58678
G1 X127.879 Y81.976 E58.92400
G1 X127.879 Y81.045 E58.95430
G1 X120.550 Y73.716 E59.29153
G1 X120.550 Y72.784 E59.32183
G1 X127.879 Y80.113 E59.65905
G1 X127.879 Y79.182 E59.68936
G1 X120.550 Y71.853 E60.02658
G1 X120.550 Y70.922 E60.05688
G1 X127.879 Y78.251 E60.39410
G1 X127.879 Y77.319 E60.42441
G1 X120.550 Y69.990 E60.76163
G1 X120.550 Y69.059 E60.79193
G1 X127.879 Y76.388 E61.12915
G1 X127.879 Y75.456 E61.15946
G1 X120.550 Y68.127 E61.49668
G1 X120.550 Y67.196 E61.52698
G1 X127.879 Y74.525 E61.86420
G1 X127.879 Y73.593 E61.89451
G1 X120.550 Y66.264 E62.23173
G1 X120.550 Y65.333 E62.26203
G1 X127.879 Y72.662 E62.59925
G1 X127.879 Y71.731 E62.62956
G1 X120.550 Y64.401 E62.96678
G1 X120.550 Y63.470 E62.99708
G1 X127.879 Y70.799 E63.33430
G1 X127.879 Y69.868 E63.36461
G1 X120.550 Y62.539 E63.70183
G1 X120.550 Y61.607 E63.73213
G1 X127.879 Y68.936 E64.06935
G1 X127.879 Y68.005 E64.09966
G1 X120.550 Y60.676 E64.43688
G1 X120.550 Y59.744 E64.46718
G1 X127.879 Y67.073 E64.80441
G1 X127.879 Y66.142 E64.83471
G1 X120.550 Y58.813 E65.17193
G1 X120.550 Y57.881 E65.20224
G1 X127.879 Y65.210 E65.53946
G1 X127.879 Y64.279 E65.56976
G1 X120.550 Y56.950 E65.90698
G1 X120.550 Y56.019 E65.93729
G1 X127.879 Y63.348 E66.27451
G1 X127.879 Y62.416 E66.30481
G1 X120.550 Y55.087 E66.64203
G1 X120.550 Y54.156 E66.67234
G1 X127.879 Y61.485 E67.00956
G1 X127.879 Y60.553 E67.03986
G1 X120.550 Y53.224 E67.37708
G1 X120.550 Y52.293 E67.40739
G1 X127.879 Y59.622 E67.74461
G1 X127.879 Y58.690 E67.77491
G1 X120.550 Y51.361 E68.11213
G1 X120.550 Y50.430 E68.14244
G1 X127.879 Y57.759 E68.47966
G1 X127.879 Y56.828 E68.50996
G1 X120.550 Y49.499 E68.84718
G1 X120.550 Y48.567 E68.87749
G1 X127.879 Y55.896 E69.21471
G1 X127.879 Y54.965 E69.24501
G1 X120.550 Y47.636 E69.58223
G1 X120.550 Y46.704 E69.61254
G1 X127.879 Y54.033 E69.94976
G1 X127.879 Y53.102 E69.98006
G1 X120.550 Y45.773 E70.31728
G1 X120.550 Y44.841 E70.34759
G1 X127.879 Y52.170 E70.68481
G1 X127.879 Y51.239 E70.71511
G1 X120.550 Y43.910 E71.05234
G1 X120.550 Y42.978 E71.08264
G1 X127.879 Y50.307 E71.41986
G1 X127.879 Y49.376 E71.45017
G1 X120.550 Y42.047 E71.78739
G1 X120.550 Y41.116 E71.81769
G1 X127.879 Y48.445 E72.15491
G1 X127.879 Y47.513 E72.18522
G1 X120.550 Y40.184 E72.52244
G1 X120.918 Y39.621 E72.54433
G1 X127.879 Y46.582 E72.86463
G1 X127.879 Y45.650 E72.89493
G1 X121.850 Y39.621 E73.17237
G1 X122.781 Y39.621 E73.20268
G1 X127.879 Y44.719 E73.43726
G1 X127.879 Y43.787 E73.46757
G1 X123.713 Y39.621 E73.65929
G1 X124.713 Y39.689 E73.69191
G1 X127.811 Y42.788 E73.83447
G1 X126.998 Y41.044 F7800.000
G1 X126.452 Y40.497 E73.85963 F1080.000
G1 F1800.000 E72.85963
G92 E0
G1 X106.126 Y160.836 F7800.000
G1 E1.00000 F1800.000
G1 X71.664 Y160.836 E2.12122 F540.000
G1 X71.664 Y39.164 E6.07983
G1 X106.126 Y39.164 E7.20104
G1 X106.126 Y160.761 E11.15722
G1 X106.783 Y161.493 F7800.000
G1 X71.007 Y161.493 E12.32119 F540.000
G1 X71.007 Y38.507 E16.32256
G1 X106.783 Y38.507 E17.48653
G1 X106.783 Y161.418 E21.48546
G1 X107.440 Y162.150 F7800.000
G1 X70.350 Y162.150 E22.69219 F378.000
G1 X70.350 Y37.850 E26.73632
G1 X107.440 Y37.850 E27.94304
G1 X107.440 Y162.075 E31.98473
G1 X107.007 Y161.900 F7800.000
G1 X72.121 Y160.339 F7800.000
G1 X72.161 Y160.379 E31.98657 F1080.000
G1 X73.095 Y160.379 E32.01698
G1 X72.121 Y159.405 E32.06183
G1 X72.121 Y158.470 E32.09224
G1 X74.030 Y160.379 E32.18010
G1 X74.965 Y160.379 E32.21051
G1 X72.121 Y157.535 E32.34137
G1 X72.121 Y156.601 E32.37178
G1 X75.899 Y160.379 E32.54566
G1 X76.834 Y160.379 E32.57607
G1 X72.121 Y155.666 E32.79295
G1 X72.121 Y154.731 E32.82336
G1 X77.769 Y160.379 E33.08325
G1 X78.704 Y160.379 E33.11366
G1 X72.121 Y153.796 E33.41655
G1 X72.121 Y152.862 E33.44696
G1 X79.638 Y160.379 E33.79287
G1 X80.573 Y160.379 E33.82328
G1 X72.121 Y151.927 E34.21219
G1 X72.121 Y150.992 E34.24260
G1 X81.508 Y160.379 E34.67452
G1 X82.442 Y160.379 E34.70493
G1 X72.121 Y150.058 E35.17986
G1 X72.121 Y149.123 E35.21027
G1 X83.377 Y160.379 E35.72820
G1 X84.312 Y160.379 E35.75861
G1 X72.121 Y148.188 E36.31955
G1 X72.121 Y147.253 E36.34996
G1 X85.247 Y160.379 E36.95391
G1 X86.181 Y160.379 E36.98433
G1 X72.121 Y146.319 E37.63128
G1 X72.121 Y145.384 E37.66169
G1 X87.116 Y160.379 E38.35166
G1 X88.051 Y160.379 E38.38207
G1 X72.121 Y144.449 E39.11505
G1 X72.121 Y143.515 E39.14546
G1 X88.985 Y160.379 E39.92144
G1 X89.920 Y160.379 E39.95185
G1 X72.121 Y142.580 E40.77084
G1 X72.121 Y141.645 E40.80125
G1 X90.855 Y160.379 E41.66325
G1 X91.790 Y160.379 E41.69366
G1 X72.121 Y140.710 E42.59866
G1 X72.121 Y139.776 E42.62907
G1 X92.724 Y160.379 E43.57709
G1 X93.659 Y160.379 E43.60750
G1 X72.121 Y138.841 E44.59852
G1 X72.121 Y137.906 E44.62893
G1 X94.594 Y160.379 E45.66296
G1 X95.528 Y160.379 E45.69337
G1 X72.121 Y136.972 E46.77040
G1 X72.121 Y136.037 E46.80081
