; generated by Slic3r 1.0.0RC3 on 2016-02-05 at 19:35:45

; layer_height = 0.25
; perimeters = 3
; top_solid_layers = 3
; bottom_solid_layers = 3
; fill_density = 0.8
; perimeter_speed = 30
; infill_speed = 40
; travel_speed = 40
; nozzle_diameter = 0.5
; filament_diameter = 3
; extrusion_multiplier = 1
; perimeters extrusion width = 0.50mm
; infill extrusion width = 0.84mm
; solid infill extrusion width = 0.84mm
; top infill extrusion width = 0.84mm
; first layer extrusion width = 1.00mm

G21 ; set units to millimeters
M107
M190 S45 ; wait for bed temperature to be reached
M104 S205 ; set temperature
G28 ; home all axes
G1 Z5 F5000 ; lift nozzle
M109 S205 ; wait for temperature to be reached
G90 ; use absolute coordinates
G92 E0
M82 ; use absolute distances for extrusion
G1 F1800.000 E-3.00000
G1 Z5.500 F2400.000
G92 E0
G1 X85.130 Y85.130 F2400.000
G1 Z0.500 F2400.000
G1 E3.00000 F1800.000
G1 X86.170 Y84.270 E3.08522 F540.000
G1 X87.360 Y83.630 E3.17054
G1 X88.660 Y83.240 E3.25624
G1 X90.000 Y83.110 E3.34125
G1 X110.000 Y83.110 E4.60416
G1 X111.340 Y83.240 E4.68918
G1 X112.640 Y83.630 E4.77488
G1 X113.830 Y84.270 E4.86020
G1 X114.870 Y85.130 E4.94542
G1 X115.730 Y86.170 E5.03063
G1 X116.370 Y87.360 E5.11595
G1 X116.760 Y88.660 E5.20166
G1 X116.890 Y90.000 E5.28667
G1 X116.890 Y110.000 E6.54958
G1 X116.760 Y111.340 E6.63459
G1 X116.370 Y112.640 E6.72030
G1 X115.730 Y113.830 E6.80562
G1 X114.870 Y114.870 E6.89083
G1 X113.830 Y115.730 E6.97605
G1 X112.640 Y116.370 E7.06137
G1 X111.340 Y116.760 E7.14708
G1 X110.000 Y116.890 E7.23209
G1 X90.000 Y116.890 E8.49500
G1 X88.660 Y116.760 E8.58001
G1 X87.360 Y116.370 E8.66572
G1 X86.170 Y115.730 E8.75104
G1 X85.130 Y114.870 E8.83625
G1 X84.270 Y113.830 E8.92147
G1 X83.630 Y112.640 E9.00679
G1 X83.240 Y111.340 E9.09249
G1 X83.110 Y110.000 E9.17751
G1 X83.110 Y90.000 E10.44042
G1 X83.240 Y88.660 E10.52543
G1 X83.630 Y87.360 E10.61113
G1 X84.270 Y86.170 E10.69645
G1 X85.045 Y85.233 E10.77321
G1 F1800.000 E7.77321
G1 Z5.500 F2400.000
G92 E0
G1 X107.393 Y107.393 F2400.000
G1 Z0.500 F2400.000
G1 E3.00000 F1800.000
G1 X108.607 Y107.393 E3.07670 F540.000
G1 X108.607 Y108.607 E3.15339
G1 X107.393 Y108.607 E3.23009
G1 X107.393 Y107.527 E3.29833
G1 X106.500 Y106.500 F2400.000
G1 X109.500 Y106.500 E3.48777 F540.000
G1 X109.500 Y109.500 E3.67720
G1 X106.500 Y109.500 E3.86664
G1 X106.500 Y106.634 E4.04762
G1 X107.273 Y106.946 F2400.000
G1 F1800.000 E1.04762
G1 Z5.500 F2400.000
G92 E0
G1 X92.607 Y107.393 F2400.000
G1 Z0.500 F2400.000
G1 E3.00000 F1800.000
G1 X92.607 Y108.607 E3.07670 F540.000
G1 X91.393 Y108.607 E3.15339
G1 X91.393 Y107.393 E3.23009
G1 X92.473 Y107.393 E3.29833
G1 X93.500 Y106.500 F2400.000
G1 X93.500 Y109.500 E3.48777 F540.000
G1 X90.500 Y109.500 E3.67720
G1 X90.500 Y106.500 E3.86664
G1 X93.366 Y106.500 E4.04762
G1 X93.054 Y107.273 F2400.000
G1 F1800.000 E1.04762
G1 Z5.500 F2400.000
G92 E0
G1 X107.393 Y92.607 F2400.000
G1 Z0.500 F2400.000
G1 E3.00000 F1800.000
G1 X107.393 Y91.393 E3.07670 F540.000
G1 X108.607 Y91.393 E3.15339
G1 X108.607 Y92.607 E3.23009
G1 X107.527 Y92.607 E3.29833
G1 X106.500 Y93.500 F2400.000
G1 X106.500 Y90.500 E3.48777 F540.000
G1 X109.500 Y90.500 E3.67720
G1 X109.500 Y93.500 E3.86664
G1 X106.634 Y93.500 E4.04762
G1 X106.946 Y92.727 F2400.000
G1 F1800.000 E1.04762
G1 Z5.500 F2400.000
G92 E0
G1 X92.607 Y92.607 F2400.000
G1 Z0.500 F2400.000
G1 E3.00000 F1800.000
G1 X91.393 Y92.607 E3.07670 F540.000
G1 X91.393 Y91.393 E3.15339
G1 X92.607 Y91.393 E3.23009
G1 X92.607 Y92.473 E3.29833
G1 X93.500 Y93.500 F2400.000
G1 X90.500 Y93.500 E3.48777 F540.000
G1 X90.500 Y90.500 E3.67720
G1 X93.500 Y90.500 E3.86664
G1 X93.500 Y93.366 E4.04762
G1 X92.727 Y93.054 F2400.000
M106 S255
M104 S200 ; set temperature
M140 S40 ; set bed temperature
G1 F1800.000 E1.04762
G1 Z5.750 F2400.000
G92 E0
G1 X107.518 Y107.519 F2400.000
G1 Z0.750 F2400.000
G1 E3.00000 F1800.000
G1 X108.486 Y107.519 E3.01712 F600.000
G1 X108.486 Y108.486 E3.03422
G1 X107.518 Y108.486 E3.05134
G1 X107.518 Y107.594 E3.06711
G1 X107.018 Y107.019 F2400.000
G1 X108.986 Y107.018 E3.10191 F600.000
G1 X108.986 Y108.986 E3.13671
G1 X107.018 Y108.986 E3.17151
G1 X107.018 Y107.094 E3.20497
G1 X106.518 Y106.519 F2400.000
G1 X109.486 Y106.518 E3.25745 F600.000
G1 X109.486 Y109.486 E3.30994
G1 X106.518 Y109.486 E3.36242
G1 X106.518 Y106.594 E3.41357
G1 X106.951 Y106.769 F2400.000
G1 F1800.000 E0.41357
G1 Z5.750 F2400.000
G92 E0
G1 X92.481 Y107.518 F2400.000
G1 Z0.750 F2400.000
G1 E3.00000 F1800.000
G1 X92.481 Y108.486 E3.01712 F600.000
G1 X91.514 Y108.486 E3.03422
G1 X91.514 Y107.518 E3.05134
G1 X92.406 Y107.518 E3.06712
G1 X92.981 Y107.018 F2400.000
G1 X92.981 Y108.986 E3.10192 F600.000
G1 X91.014 Y108.986 E3.13670
G1 X91.014 Y107.018 E3.17151
G1 X92.906 Y107.018 E3.20497
G1 X93.481 Y107.100 F2400.000
G1 X93.481 Y109.486 E3.24715 F600.000
G1 X90.514 Y109.486 E3.29963
G1 X90.514 Y106.518 E3.35211
G1 X93.482 Y106.518 E3.40459
G1 X93.481 Y107.025 E3.41356
G1 X93.048 Y107.350 F2400.000
G1 F1800.000 E0.41356
G1 Z5.750 F2400.000
G92 E0
G1 X107.519 Y92.481 F2400.000
G1 Z0.750 F2400.000
G1 E3.00000 F1800.000
G1 X107.519 Y91.514 E3.01710 F600.000
G1 X108.486 Y91.514 E3.03421
G1 X108.486 Y92.481 E3.05131
G1 X107.594 Y92.481 E3.06709
G1 X107.019 Y92.981 F2400.000
G1 X107.019 Y91.014 E3.10188 F600.000
G1 X108.986 Y91.014 E3.13667
G1 X108.986 Y92.981 E3.17145
G1 X107.094 Y92.981 E3.20492
G1 X107.100 Y93.481 F2400.000
G1 X106.518 Y93.482 E3.21521 F600.000
G1 X106.519 Y90.514 E3.26769
G1 X109.486 Y90.514 E3.32016
G1 X109.486 Y93.481 E3.37264
G1 X107.175 Y93.481 E3.41350
G1 X106.850 Y93.048 F2400.000
G1 F1800.000 E0.41350
G1 Z5.750 F2400.000
G92 E0
G1 X92.482 Y92.481 F2400.000
G1 Z0.750 F2400.000
G1 E3.00000 F1800.000
G1 X91.514 Y92.481 E3.01712 F600.000
G1 X91.514 Y91.514 E3.03422
G1 X92.482 Y91.514 E3.05134
G1 X92.482 Y92.406 E3.06711
G1 X92.982 Y92.981 F2400.000
G1 X91.014 Y92.982 E3.10191 F600.000
G1 X91.014 Y91.014 E3.13671
G1 X92.982 Y91.014 E3.17151
G1 X92.982 Y92.906 E3.20497
G1 X93.482 Y93.481 F2400.000
G1 X90.514 Y93.482 E3.25745 F600.000
G1 X90.514 Y90.514 E3.30994
G1 X93.482 Y90.514 E3.36242
G1 X93.482 Y93.406 E3.41357
G1 X93.049 Y93.231 F2400.000
G1 F1800.000 E0.41357
G1 Z6.000 F2400.000
G92 E0
G1 X92.513 Y107.484 F2400.000
G1 Z1.000 F2400.000
G1 E3.00000 F1800.000
G1 X92.514 Y108.346 E3.01523 F600.000
G1 X91.654 Y108.346 E3.03043
G1 X91.654 Y107.486 E3.04563
G1 X92.438 Y107.484 E3.05949
G1 X93.013 Y107.763 F2400.000
G1 X93.014 Y108.846 E3.07864 F600.000
G1 X91.154 Y108.846 E3.11153
G1 X91.154 Y106.985 E3.14444
G1 X93.014 Y106.985 E3.17732
G1 X93.013 Y107.688 E3.18975
G1 X93.513 Y107.763 F2400.000
G1 X93.515 Y109.346 E3.21774 F600.000
G1 X90.654 Y109.346 E3.26833
G1 X90.654 Y106.485 E3.31892
G1 X93.514 Y106.486 E3.36949
G1 X93.513 Y107.688 E3.39076
G1 X93.080 Y108.013 F2400.000
G1 F1800.000 E0.39076
G1 Z6.000 F2400.000
G92 E0
G1 X107.485 Y107.865 F2400.000
G1 Z1.000 F2400.000
G1 E3.00000 F1800.000
G1 X107.485 Y107.484 E3.00673 F600.000
G1 X108.346 Y107.485 E3.02195
G1 X108.346 Y108.346 E3.03718
G1 X107.484 Y108.346 E3.05241
G1 X107.485 Y107.940 E3.05959
G1 X106.986 Y107.984 F2400.000
G1 X106.985 Y106.985 E3.07727 F600.000
G1 X108.846 Y106.985 E3.11017
G1 X108.846 Y108.846 E3.14308
G1 X106.985 Y108.846 E3.17599
G1 X106.985 Y108.059 E3.18990
G1 X106.486 Y107.985 F2400.000
G1 X106.485 Y106.485 E3.21642 F600.000
G1 X109.346 Y106.485 E3.26701
G1 X109.346 Y109.346 E3.31760
G1 X106.485 Y109.346 E3.36819
G1 X106.485 Y108.060 E3.39093
G1 X106.919 Y107.735 F2400.000
G1 F1800.000 E0.39093
G1 Z6.000 F2400.000
G92 E0
G1 X107.487 Y92.516 F2400.000
G1 Z1.000 F2400.000
G1 E3.00000 F1800.000
G1 X107.486 Y91.654 E3.01524 F600.000
G1 X108.346 Y91.654 E3.03044
G1 X108.346 Y92.517 E3.04569
G1 X107.562 Y92.516 E3.05956
G1 X106.987 Y92.237 F2400.000
G1 X106.986 Y91.154 E3.07870 F600.000
G1 X108.846 Y91.154 E3.11159
G1 X108.846 Y93.016 E3.14452
G1 X106.986 Y93.015 E3.17740
G1 X106.987 Y92.312 E3.18984
G1 X106.487 Y92.237 F2400.000
G1 X106.485 Y90.654 E3.21783 F600.000
G1 X109.346 Y90.654 E3.26841
G1 X109.346 Y93.515 E3.31901
G1 X106.486 Y93.515 E3.36958
G1 X106.487 Y92.312 E3.39085
G1 X106.920 Y91.987 F2400.000
G1 F1800.000 E0.39085
G1 Z6.000 F2400.000
G92 E0
G1 X92.515 Y92.135 F2400.000
G1 Z1.000 F2400.000
G1 E3.00000 F1800.000
G1 X92.515 Y92.517 E3.00674 F600.000
G1 X91.654 Y92.513 E3.02196
G1 X91.654 Y91.654 E3.03715
G1 X92.516 Y91.654 E3.05238
G1 X92.515 Y92.060 E3.05956
G1 X93.014 Y92.016 F2400.000
G1 X93.015 Y93.015 E3.07724 F600.000
G1 X91.154 Y93.015 E3.11014
G1 X91.154 Y91.154 E3.14304
G1 X93.015 Y91.154 E3.17595
G1 X93.015 Y91.941 E3.18985
G1 X93.514 Y92.015 F2400.000
G1 X93.515 Y93.515 E3.21638 F600.000
G1 X90.654 Y93.515 E3.26696
G1 X90.654 Y90.654 E3.31755
G1 X93.515 Y90.654 E3.36814
G1 X93.515 Y91.940 E3.39088
G1 X93.081 Y92.265 F2400.000
G1 F1800.000 E0.39088
G1 Z6.250 F2400.000
G92 E0
G1 X107.447 Y107.447 F2400.000
G1 Z1.250 F2400.000
G1 E3.00000 F1800.000
G1 X108.206 Y107.447 E3.01341 F600.000
G1 X108.206 Y108.206 E3.02683
G1 X107.447 Y108.206 E3.04025
G1 X107.447 Y107.522 E3.05234
G1 X106.947 Y106.947 F2400.000
G1 X108.706 Y106.947 E3.08343 F600.000
G1 X108.706 Y108.706 E3.11454
G1 X106.947 Y108.706 E3.14564
G1 X106.947 Y107.022 E3.17541
G1 X106.447 Y106.447 F2400.000
G1 X109.206 Y106.447 E3.22419 F600.000
G1 X109.206 Y109.206 E3.27298
G1 X106.447 Y109.206 E3.32176
G1 X106.447 Y106.522 E3.36922
G1 X106.880 Y106.697 F2400.000
G1 F1800.000 E0.36922
G1 Z6.250 F2400.000
G92 E0
G1 X92.553 Y107.446 F2400.000
G1 Z1.250 F2400.000
G1 E3.00000 F1800.000
G1 X92.552 Y108.206 E3.01343 F600.000
G1 X91.794 Y108.206 E3.02684
G1 X91.794 Y107.446 E3.04027
G1 X92.478 Y107.446 E3.05235
G1 X93.052 Y107.938 F2400.000
G1 X93.052 Y108.706 E3.06592 F600.000
G1 X91.294 Y108.706 E3.09701
G1 X91.294 Y106.946 E3.12812
G1 X93.053 Y106.946 E3.15922
G1 X93.052 Y107.863 E3.17545
G1 X93.552 Y107.938 F2400.000
G1 X93.552 Y109.206 E3.19786 F600.000
G1 X90.794 Y109.206 E3.24663
G1 X90.794 Y106.446 E3.29542
G1 X93.554 Y106.446 E3.34422
G1 X93.552 Y107.863 E3.36929
G1 X93.119 Y108.188 F2400.000
G1 F1800.000 E0.36929
G1 Z6.250 F2400.000
G92 E0
G1 X107.447 Y92.553 F2400.000
G1 Z1.250 F2400.000
G1 E3.00000 F1800.000
G1 X107.448 Y91.794 E3.01342 F600.000
G1 X108.206 Y91.794 E3.02682
G1 X108.206 Y92.552 E3.04022
G1 X107.522 Y92.553 E3.05231
G1 X107.938 Y93.052 F2400.000
G1 X106.947 Y93.054 E3.06984 F600.000
G1 X106.948 Y91.294 E3.10095
G1 X108.706 Y91.294 E3.13204
G1 X108.706 Y93.052 E3.16313
G1 X108.013 Y93.052 E3.17538
G1 X107.938 Y93.552 F2400.000
G1 X106.446 Y93.555 E3.20176 F600.000
G1 X106.448 Y90.794 E3.25057
G1 X109.206 Y90.794 E3.29935
G1 X109.206 Y93.552 E3.34812
G1 X108.013 Y93.552 E3.36920
G1 X107.688 Y93.120 F2400.000
G1 F1800.000 E0.36920
G1 Z6.250 F2400.000
G92 E0
G1 X92.553 Y92.552 F2400.000
G1 Z1.250 F2400.000
G1 E3.00000 F1800.000
G1 X91.794 Y92.552 E3.01341 F600.000
G1 X91.794 Y91.794 E3.02681
G1 X92.553 Y91.794 E3.04022
G1 X92.553 Y92.477 E3.05229
G1 X92.067 Y93.051 F2400.000
G1 X91.294 Y93.052 E3.06596 F600.000
G1 X91.294 Y91.294 E3.09704
G1 X93.053 Y91.294 E3.12814
G1 X93.053 Y93.052 E3.15923
G1 X92.142 Y93.052 E3.17533
G1 X92.067 Y93.551 F2400.000
G1 X90.794 Y93.552 E3.19784 F600.000
G1 X90.794 Y90.794 E3.24661
G1 X93.553 Y90.794 E3.29540
G1 X93.553 Y93.553 E3.34417
G1 X92.142 Y93.552 E3.36911
G1 X91.817 Y93.119 F2400.000
G1 F1800.000 E0.36911
G1 Z6.500 F2400.000
G92 E0
G1 X91.893 Y106.891 F2400.000
G1 Z1.500 F2400.000
G1 E3.00000 F1800.000
G1 X93.103 Y106.895 E3.02139 F600.000
G1 X93.105 Y108.107 E3.04283
G1 X91.893 Y108.107 E3.06425
G1 X91.893 Y106.966 E3.08441
G1 X91.969 Y106.392 F2400.000
G1 X93.603 Y106.396 E3.11331 F600.000
G1 X93.605 Y108.607 E3.15241
G1 X91.393 Y108.607 E3.19152
G1 X91.393 Y106.394 E3.23065
G1 X91.894 Y106.392 E3.23950
G1 X92.219 Y106.825 F2400.000
G1 X90.810 Y106.177 F2400.000
G1 X90.907 Y106.379 E3.24347 F600.000
G1 X91.039 Y106.269 E3.24651
G1 X90.907 Y106.379 F2400.000
G1 X91.017 Y106.907 E3.25604 F600.000
G1 X90.918 Y106.709 F2400.000
G1 X90.779 Y106.835 E3.25936 F600.000
G1 X91.059 Y108.440 F2400.000
G1 X90.914 Y108.598 E3.26315 F600.000
G1 X90.830 Y108.495 E3.26550
G1 X90.914 Y108.598 F2400.000
G1 X90.961 Y109.064 E3.27378 F600.000
G1 X90.755 Y109.190 E3.27806
G1 X90.961 Y109.064 F2400.000
G1 X91.393 Y109.091 E3.28571 F600.000
G1 X91.518 Y108.970 E3.28879
G1 X91.393 Y109.091 F2400.000
G1 X91.450 Y109.172 E3.29054 F600.000
G1 X93.207 Y108.988 F2400.000
G1 X93.317 Y109.101 E3.29334 F600.000
G1 X93.327 Y109.087 F2400.000
G1 X93.650 Y109.083 E3.29904 F600.000
G1 X93.731 Y109.267 F2400.000
G1 X93.650 Y109.083 E3.30259 F600.000
G1 X93.844 Y108.912 E3.30716
G1 X92.403 Y107.617 F2400.000
G1 X92.383 Y107.597 E3.30766 F600.000
G1 F1800.000 E0.30766
G1 Z6.500 F2400.000
G92 E0
G1 X92.403 Y92.614 F2400.000
G1 Z1.500 F2400.000
G1 E3.00000 F1800.000
G1 X92.383 Y92.594 E3.00050 F600.000
G1 F1800.000 E0.00050
G1 Z6.500 F2400.000
G92 E0
G1 X107.386 Y92.597 F2400.000
G1 Z1.500 F2400.000
G1 E3.00000 F1800.000
G1 X107.406 Y92.617 E3.00050 F600.000
G1 F1800.000 E0.00050
G1 Z6.500 F2400.000
G92 E0
G1 X107.383 Y107.597 F2400.000
G1 Z1.500 F2400.000
G1 E3.00000 F1800.000
G1 X107.403 Y107.617 E3.00050 F600.000
G1 X107.434 Y108.107 F2400.000
G1 X106.892 Y108.107 E3.01009 F600.000
G1 X106.894 Y106.895 E3.03151
G1 X108.107 Y106.895 E3.05296
G1 X108.107 Y108.107 E3.07439
G1 X107.509 Y108.107 E3.08496
G1 X107.434 Y108.607 F2400.000
G1 X106.395 Y108.607 E3.10334 F600.000
G1 X106.395 Y106.395 E3.14245
G1 X108.607 Y106.395 E3.18156
G1 X108.607 Y108.607 E3.22068
G1 X107.509 Y108.607 E3.24009
G1 X107.184 Y108.174 F2400.000
G1 X108.970 Y108.482 F2400.000
G1 X109.091 Y108.607 E3.24317 F600.000
G1 X109.172 Y108.550 E3.24492
G1 X109.091 Y108.607 F2400.000
G1 X109.064 Y109.039 E3.25257 F600.000
G1 X109.190 Y109.245 E3.25684
G1 X109.064 Y109.039 F2400.000
G1 X108.611 Y109.076 E3.26489 F600.000
G1 X108.495 Y109.170 F2400.000
G1 X108.611 Y109.076 E3.26752 F600.000
G1 X108.392 Y108.952 E3.27197
G1 X106.927 Y108.982 F2400.000
G1 X106.379 Y109.093 E3.28184 F600.000
G1 X106.270 Y108.961 E3.28488
G1 X106.379 Y109.093 F2400.000
G1 X106.177 Y109.190 E3.28885 F600.000
G1 X106.709 Y109.082 F2400.000
G1 X106.835 Y109.221 E3.29217 F600.000
G1 F1800.000 E0.29217
G1 Z6.500 F2400.000
G92 E0
G1 X108.972 Y106.816 F2400.000
G1 Z1.500 F2400.000
G1 E3.00000 F1800.000
G1 X109.089 Y106.706 E3.00285 F600.000
G1 X109.079 Y106.380 E3.00861
G1 X109.211 Y106.269 F2400.000
G1 X109.079 Y106.380 E3.01167 F600.000
G1 X108.982 Y106.179 E3.01561
G1 X109.089 Y106.706 F2400.000
G1 X109.199 Y106.859 E3.01894 F600.000
G1 F1800.000 E0.01894
G1 Z6.500 F2400.000
G92 E0
G1 X108.107 Y93.109 F2400.000
G1 Z1.500 F2400.000
G1 E3.00000 F1800.000
G1 X106.897 Y93.105 E3.02139 F600.000
G1 X106.895 Y91.893 E3.04283
G1 X108.107 Y91.893 E3.06425
G1 X108.107 Y93.034 E3.08441
G1 X108.032 Y93.608 F2400.000
G1 X106.397 Y93.604 E3.11332 F600.000
G1 X106.395 Y91.393 E3.15241
G1 X108.607 Y91.393 E3.19153
G1 X108.607 Y93.607 E3.23069
G1 X108.107 Y93.608 E3.23953
G1 X107.782 Y93.175 F2400.000
G1 X109.190 Y93.823 F2400.000
G1 X109.081 Y93.291 E3.24913 F600.000
G1 X109.221 Y93.165 F2400.000
G1 X109.081 Y93.291 E3.25246 F600.000
G1 X108.983 Y93.094 E3.25636
G1 X109.093 Y93.622 F2400.000
G1 X108.961 Y93.732 E3.25940 F600.000
G1 X107.857 Y92.143 F2400.000
G1 X108.952 Y91.608 F2400.000
G1 X109.102 Y91.310 E3.26531 F600.000
G1 X109.039 Y90.936 E3.27201
G1 X109.245 Y90.810 F2400.000
G1 X109.039 Y90.936 E3.27629 F600.000
G1 X108.550 Y90.828 E3.28515
